X:1
T:Title
%%score { 1 | ( 2 3 ) }
L:1/8
Q:1/4=100
M:4/4
K:F
V:1 treble nm="Grand Piano"
V:2 bass 
V:3 bass 
V:1
 A3 A _A2 =A2 | B2 A2 A2 F2 | D3 D E2 F2 | F4 E2 E2 | A3 A _A2 =A2 | B2 A2 c2 A2 | G3 F A2 =B2 | %7
w: H.~C.~Blosser * * *|||||||
 [Ec]6 z2 | [Fc]3 [EB] [EB]2 [EG]2 | [GB]3 A A2 F2 | [Fc]3 [EB] [EB]2 [FA]2 | [CF]2 [DG]2 E2 E2 | %12
w: |||||
 A3 A _A2 =A2 | B2 A2 [_Ec]2 [DB]2 | A3 G D2 E2 | F6 z2 | E3 [DF] [EG]2 [EB]2 | D2 E2 F2 C2 | %18
w: ||||||
 [G,EG]3 [FA] [GB]2 [Bd]2 | [Ac]2 [_A=B]2 [=Ac]2 [G_B]2 | [FA]3 [GB] [Ac]2 [Af]2 | G2 A2 c2 B2 | %22
w: ||||
 D3 F E3 G |[M:3/4] F6 |] %24
w: ||
V:2
 [F,CF]3 [F,CF] [F,=B,F]2 [F,CF]2 | [F,DF]2 [F,CF]2 [F,CF]2 [F,A,C]2 | %2
 [B,,B,]3 [B,,B,] [C,B,C]2 [C,A,C]2 | A,4 z4 | [F,CF]3 [F,CF] [F,=B,F]2 [F,CF]2 | %5
 [F,DF]2 [F,CF]2 [F,A,F]2 [F,CF]2 | [G,CE]3 [G,=B,D] [G,CE]2 [G,DF]2 | [C,C]6 z2 | %8
 [C,A,]3 [C,G,] [C,G,]2 [E,G,]2 | [E,C]3 [F,CF] [F,CF]2 [F,A,]2 | [C,A,]3 [C,G,] [C,G,]2 [C,F,]2 | %11
 z4 [G,C]2 z2 | [F,CF]3 [F,CF] [F,=B,F]2 [F,CF]2 | [F,DF]2 [F,CF]2 [A,,F,]2 [B,,F,]2 | %14
 [C,F,C]3 [C,E,C] [C,F,C]2 [C,F,C]2 | [F,A,C]6 z2 | [C,G,C]3 [C,G,] [C,G,]2 [C,G,]2 | %17
 [C,B,]2- [C,G,B,]2 [F,A,]2 F,2 | C,3 [C,G,] [C,G,]2 [C,E,]2 | F,2 [D,F,]2 [C,E,]4 | %20
 [F,C]3 [F,B,] [F,A,]2 [F,C]2 | [B,E]2 [A,F]2 [CE]2 D2 | [G,B,]3 [G,D] [C,G,C]3 [C,B,C] | %23
[M:3/4] [F,A,C]6 |] %24
V:3
 x8 | x8 | x8 | [C,C]4- [C,-G,C]2 [C,C]2 | x8 | x8 | x8 | x8 | x8 | x8 | x8 | %11
 [C,A,]2 [C,B,]2 C,2- [C,C]2 | x8 | x8 | x8 | x8 | x8 | F,2 z2 z4 | x8 | x8 | x8 | C4 G,4 | x8 | %23
[M:3/4] x6 |] %24

